app/client/src/assets/icons/blueprintjs/20px/double-chevron-right.svg

<svg xmlns="http://www.w3.org/2000/svg" xml:space="preserve" viewBox="0 0 20 20"><path fill-rule="evenodd" d="M11 10c0-.28-.11-.53-.29-.71l-6-6a1.003 1.003 0 0 0-1.42 1.42L8.59 10 3.3 15.29c-.19.18-.3.43-.3.71a1.003 1.003 0 0 0 1.71.71l6-6c.18-.18.29-.43.29-.71zm5.71-.71-6-6a1.003 1.003 0 0 0-1.42 1.42l5.3 5.29-5.29 5.29c-.19.18-.3.43-.3.71a1.003 1.003 0 0 0 1.71.71l6-6c.18-.18.29-.43.29-.71 0-.28-.11-.53-.29-.71z" clip-rule="evenodd"/></svg>

<?xml version="1.0" encoding="utf-8"?>
<!-- Generator: Adobe Illustrator 18.0.0, SVG Export Plug-In . SVG Version: 6.00 Build 0)  -->
<svg version="1.1" id="Layer_1" xmlns="http://www.w3.org/2000/svg" xmlns:xlink="http://www.w3.org/1999/xlink" x="0px" y="0px"
	 viewBox="0 0 20 20" enable-background="new 0 0 20 20" xml:space="preserve">
<g id="double_chevron_right_1_">
	<g>
		<path fill-rule="evenodd" clip-rule="evenodd" d="M11,10c0-0.28-0.11-0.53-0.29-0.71l-6-6C4.53,3.11,4.28,3,4,3C3.45,3,3,3.45,3,4
			c0,0.28,0.11,0.53,0.29,0.71L8.59,10l-5.29,5.29C3.11,15.47,3,15.72,3,16c0,0.55,0.45,1,1,1c0.28,0,0.53-0.11,0.71-0.29l6-6
			C10.89,10.53,11,10.28,11,10z M16.71,9.29l-6-6C10.53,3.11,10.28,3,10,3C9.45,3,9,3.45,9,4c0,0.28,0.11,0.53,0.29,0.71L14.59,10
			l-5.29,5.29C9.11,15.47,9,15.72,9,16c0,0.55,0.45,1,1,1c0.28,0,0.53-0.11,0.71-0.29l6-6C16.89,10.53,17,10.28,17,10
			C17,9.72,16.89,9.47,16.71,9.29z"/>
	</g>
</g>
</svg>
